!!!COM: Schubert, Franz
!!!CNT: Deutscher
!!!TXO: Deutsch
!!!OTL: "Ta2uschung"
!!!OPR: Winterreise
!!!LYR: Mu2ller, Wilhelm
!!!OPS: Opus 89
!!!ONM: No. 19
!!!ODT: 1827/
!!NB: Vocal melody only encoded.
**kern	**silbe
*clefG2	*
*k[f#c#g#]	*
*M6/8	*
*MM[geschwind]	*
=5	=5
4r	.
8r	.
4r	.
{8cc#	{Ein
=6	=6
[4.cc#	Licht
4cc#]	|
8a	tanzt
=7	=7
4e	freund-
8e	-lich
(16f#	vor
16e)	|
8d#	|
8e	mir
=8	=8
(4.f#	her,
4e)}	|}
8r	.
=9	=9
4r	.
8r	.
4r	.
{8e#	{ich
=10	=10
[4.f#	folg'
4f#]	|
8g#	ihm
=11	=11
aq	nach
bq	|
8a	|
8g#	|
8a	die
4cc#	Kreuz
8b	und
=12	=12
4a}	Quer;}
8r	.
4r	.
8r	.
=13	=13
4r	.
8r	.
4r	.
{8cc#	{ich
=14	=14
[4.cc#	folg'
4cc#]	|
8a	ihm
=15	=15
4e	gern,
8e	und
(16f#	seh's
16e)	|
8d#	|
8e	ihm
=16	=16
(4.f#	an
4e)}	|}
8r	.
=17	=17
4r	.
8r	.
4r	.
{8e#	{dass
=18	=18
[4.f#	es
4f#]	|
8g#	ver-
=19	=19
8a	-lockt
8cc#	|
8a	den
g#q	Wan-
4ee	|
8g#	-ders-
=20	=20
4a}	-mann.}
8r	.
4r	.
8r	.
=22	=22
{4ccn	{Ach!
8r	.
8r	.
8a	wer
8b	wie
=23	=23
4ccn	ich
8ccn	so
4ee	e-
8ccn	-lend
=24	=24
4b}	ist,}
8r	.
4r	.
{8b	{giebt
=25	=25
(4cc#	gern
8b)	|
4r	.
8b	sich
=26	=26
4a#	hin
8a#	der
8an	bun-
8cc#	|
8b	-ten
=27	=27
4g#}	List,}
8r	.
4r	.
{8g#	{die
=28	=28
4a	hin-
8a	-ter
4a#	Eis
8a#	und
=29	=29
[4.b	Nacht
4b]	|
8b	und
=30	=30
[4.b#	Graus
4b#]}	|}
{8b#	{ihm
=31	=31
[4.cc#	weist
4cc#]	|
8a	ein
=32	=32
4e	hel-
8e	-les,
(16f#	war-
16e)	|
8d#	|
8e	-mes
=33	=33
(4.f#	Haus,
4e)}	|}
8r	.
=34	=34
4r	.
8r	.
4r	.
{8e#	{und
=35	=35
[4.f#	ei-
4f#]	|
8g#	-ne
=36	=36
8a	lie-
8g#	|
8a	-be
4cc#	See-
8b	-le
=37	=37
4a}	drin}
8r	.
4r	.
{8cc#	{nur
=38	=38
[4.cc#	Ta2u-
4cc#]	|
8g#	-schung
=39	=39
8a	ist
8cc#	|
8a	fu2r
(g#q	mich
4ee)	|
8g#	Ge-
=40	=40
4a}	-winn!}
8r	.
4r	.
8r	.
*-	*-
